gilbertguide/assets/images/item_6615.svg

<?xml version="1.0" standalone="no"?><!DOCTYPE svg PUBLIC "-//W3C//DTD SVG 1.1//EN" "http://www.w3.org/Graphics/SVG/1.1/DTD/svg11.dtd"><svg xmlns="http://www.w3.org/2000/svg" version="1.1" width="335px" height="46.1px" viewBox="0 0 335 46.1"><desc>Islands</desc><defs/><g id="Polygon12816"><path d="m2.4 21.7c0 0 0-14.8 0-14.8c-.8-.1-1.4-.2-1.8-.4c0-.02 0-1.8 0-1.8l8.9 0c0 0 .04 1.78 0 1.8c-.4.2-1 .3-1.8.4c0 0 0 14.8 0 14.8c.8 0 1.4.2 1.8.4c.04-.02 0 1.8 0 1.8l-8.9 0c0 0 0-1.82 0-1.8c.4-.2 1-.4 1.8-.4zm8.8.5c0-1 .2-2 .4-3c.01 0 2.6 0 2.6 0c0 0 .53 2.67.5 2.7c.5.1 1 .1 1.5.1c1.3 0 2.2-.6 2.2-1.7c0-1-.9-1.4-2.3-1.9c0 0-1.6-.4-1.6-.4c-1.9-.6-3.3-1.9-3.3-4.4c0-3.3 3-4.6 6.6-4.6c1.6 0 3.5.3 4.6.8c.1.4.1.9.1 1.3c0 .9-.1 2-.4 2.9c.01.04-2.6 0-2.6 0c0 0-.51-2.6-.5-2.6c-.4-.1-.8-.2-1.2-.2c-1.1 0-2.2.5-2.2 1.6c0 1.1.9 1.5 2 1.8c0 0 1.6.5 1.6.5c2.3.7 3.9 1.8 3.9 4.2c0 3.2-2.4 4.9-6.9 4.9c-1.7 0-3.7-.3-4.8-.7c-.2-.4-.2-.9-.2-1.3zm14.7-.4c-.04.01 0-16.1 0-16.1l-1.8-.4c0 0-.01-1.73 0-1.7c1.7-.5 4.3-.7 6.8-.7c0 0 0 18.9 0 18.9c.7.1 1.2.2 1.6.4c-.04 0 0 1.7 0 1.7l-8.2 0c0 0 .03-1.7 0-1.7c.4-.2.9-.3 1.6-.4zm15.9-6.4c0 0 0-1.8 0-1.8c0-1.4-.6-2.1-2.2-2.1c-.4 0-.8 0-1.3.1c-.02.04-.5 2.6-.5 2.6c0 0-2.85-.04-2.9 0c-.2-.8-.3-1.7-.3-2.4c0-.4 0-1 .1-1.3c1.9-1 4.3-1.4 6.5-1.4c3.6 0 5.6 1.3 5.6 4.2c0 2.4-.1 5.4-.1 8.1c-.02-.01 1.5.4 1.5.4c0 0-.02 1.63 0 1.6c-1.7.5-3.8.7-6.4.7c0 0 0-2.1 0-2.1c-.6 1.3-2.1 2.2-3.9 2.2c-2.5 0-4.2-1.3-4.2-4c0-3.9 3.6-4.5 8.1-4.8zm0 5.4c0 0 0-3.6 0-3.6c-2.1.2-3.4.8-3.4 2.4c0 1.2.8 1.8 1.8 1.8c.6 0 1.1-.3 1.6-.6zm9.3 1c-.01.01 0-9.7 0-9.7l-1.5-.4c0 0-.01-1.77 0-1.8c1.7-.4 4-.8 6.5-.8c0 0 0 2.4 0 2.4c1.1-1.7 2.9-2.5 5-2.5c3 0 4.6 1.8 4.6 4.5c0 0 0 8.3 0 8.3c.6.1 1.2.2 1.5.4c0 0 0 1.7 0 1.7l-8.1 0c0 0 0-1.7 0-1.7c.3-.2.9-.3 1.5-.4c0 0 0-7.3 0-7.3c0-1.2-.7-1.9-1.9-1.9c-.9 0-1.8.3-2.6 1c0 0 0 8.2 0 8.2c.7.1 1.3.2 1.6.4c-.01 0 0 1.7 0 1.7l-8.1 0c0 0-.04-1.7 0-1.7c.3-.2.8-.3 1.5-.4zm24.4-12.9c1.2 0 2.3.5 2.9 1.2c.02.01 0-4.4 0-4.4l-1.8-.4c0 0-.04-1.73 0-1.7c1.7-.5 4.3-.7 6.9-.7c-.04-.02 0 18.5 0 18.5l1.5.4c0 0-.04 1.63 0 1.6c-1.7.5-3.9.7-6.5.7c0 0 0-2.3 0-2.3c-.8 1.5-2.3 2.4-4.1 2.4c-3.5 0-5.8-2.7-5.8-7.2c0-5 2.8-8.1 6.9-8.1zm2.9 11.3c0 0 0-8.2 0-8.2c-.3-.1-.7-.2-1.1-.2c-2.3 0-3.5 2.1-3.5 4.7c0 3.3 1.2 4.5 2.8 4.5c.7 0 1.3-.3 1.8-.8zm8.3 2c0-1 .1-2 .4-3c-.04 0 2.6 0 2.6 0c0 0 .48 2.67.5 2.7c.4.1.9.1 1.4.1c1.3 0 2.2-.6 2.2-1.7c0-1-.8-1.4-2.2-1.9c0 0-1.6-.4-1.6-.4c-2-.6-3.4-1.9-3.4-4.4c0-3.3 3.1-4.6 6.6-4.6c1.6 0 3.5.3 4.6.8c.1.4.1.9.1 1.3c0 .9-.1 2-.3 2.9c-.04.04-2.7 0-2.7 0c0 0-.46-2.6-.5-2.6c-.3-.1-.7-.2-1.2-.2c-1.1 0-2.2.5-2.2 1.6c0 1.1.9 1.5 2.1 1.8c0 0 1.6.5 1.6.5c2.3.7 3.8 1.8 3.8 4.2c0 3.2-2.4 4.9-6.9 4.9c-1.6 0-3.7-.3-4.8-.7c-.1-.4-.1-.9-.1-1.3z" stroke="none" fill="#404040"/></g></svg>

<?xml version="1.0" standalone="no"?><!DOCTYPE svg PUBLIC "-//W3C//DTD SVG 1.1//EN" "http://www.w3.org/Graphics/SVG/1.1/DTD/svg11.dtd"><svg xmlns="http://www.w3.org/2000/svg" version="1.1" width="335px" height="46.1px" viewBox="0 0 335 46.1">  <desc>Islands</desc>  <defs/>  <g id="Polygon12700">    <path d="M 2.4 21.7 C 2.4 21.7 2.4 6.9 2.4 6.9 C 1.6 6.8 1 6.7 0.6 6.5 C 0.6 6.48 0.6 4.7 0.6 4.7 L 9.5 4.7 C 9.5 4.7 9.54 6.48 9.5 6.5 C 9.1 6.7 8.5 6.8 7.7 6.9 C 7.7 6.9 7.7 21.7 7.7 21.7 C 8.5 21.7 9.1 21.9 9.5 22.1 C 9.54 22.08 9.5 23.9 9.5 23.9 L 0.6 23.9 C 0.6 23.9 0.6 22.08 0.6 22.1 C 1 21.9 1.6 21.7 2.4 21.7 Z M 11.2 22.2 C 11.2 21.2 11.4 20.2 11.6 19.2 C 11.61 19.2 14.2 19.2 14.2 19.2 C 14.2 19.2 14.73 21.87 14.7 21.9 C 15.2 22 15.7 22 16.2 22 C 17.5 22 18.4 21.4 18.4 20.3 C 18.4 19.3 17.5 18.9 16.1 18.4 C 16.1 18.4 14.5 18 14.5 18 C 12.6 17.4 11.2 16.1 11.2 13.6 C 11.2 10.3 14.2 9 17.8 9 C 19.4 9 21.3 9.3 22.4 9.8 C 22.5 10.2 22.5 10.7 22.5 11.1 C 22.5 12 22.4 13.1 22.1 14 C 22.11 14.04 19.5 14 19.5 14 C 19.5 14 18.99 11.4 19 11.4 C 18.6 11.3 18.2 11.2 17.8 11.2 C 16.7 11.2 15.6 11.7 15.6 12.8 C 15.6 13.9 16.5 14.3 17.6 14.6 C 17.6 14.6 19.2 15.1 19.2 15.1 C 21.5 15.8 23.1 16.9 23.1 19.3 C 23.1 22.5 20.7 24.2 16.2 24.2 C 14.5 24.2 12.5 23.9 11.4 23.5 C 11.2 23.1 11.2 22.6 11.2 22.2 Z M 25.9 21.8 C 25.86 21.81 25.9 5.7 25.9 5.7 L 24.1 5.3 C 24.1 5.3 24.09 3.57 24.1 3.6 C 25.8 3.1 28.4 2.9 30.9 2.9 C 30.9 2.9 30.9 21.8 30.9 21.8 C 31.6 21.9 32.1 22 32.5 22.2 C 32.46 22.2 32.5 23.9 32.5 23.9 L 24.3 23.9 C 24.3 23.9 24.33 22.2 24.3 22.2 C 24.7 22 25.2 21.9 25.9 21.8 Z M 41.8 15.4 C 41.8 15.4 41.8 13.6 41.8 13.6 C 41.8 12.2 41.2 11.5 39.6 11.5 C 39.2 11.5 38.8 11.5 38.3 11.6 C 38.28 11.64 37.8 14.2 37.8 14.2 C 37.8 14.2 34.95 14.16 34.9 14.2 C 34.7 13.4 34.6 12.5 34.6 11.8 C 34.6 11.4 34.6 10.8 34.7 10.5 C 36.6 9.5 39 9.1 41.2 9.1 C 44.8 9.1 46.8 10.4 46.8 13.3 C 46.8 15.7 46.7 18.7 46.7 21.4 C 46.68 21.39 48.2 21.8 48.2 21.8 C 48.2 21.8 48.18 23.43 48.2 23.4 C 46.5 23.9 44.4 24.1 41.8 24.1 C 41.8 24.1 41.8 22 41.8 22 C 41.2 23.3 39.7 24.2 37.9 24.2 C 35.4 24.2 33.7 22.9 33.7 20.2 C 33.7 16.3 37.3 15.7 41.8 15.4 Z M 41.8 20.8 C 41.8 20.8 41.8 17.2 41.8 17.2 C 39.7 17.4 38.4 18 38.4 19.6 C 38.4 20.8 39.2 21.4 40.2 21.4 C 40.8 21.4 41.3 21.1 41.8 20.8 Z M 51.1 21.8 C 51.09 21.81 51.1 12.1 51.1 12.1 L 49.6 11.7 C 49.6 11.7 49.59 9.93 49.6 9.9 C 51.3 9.5 53.6 9.1 56.1 9.1 C 56.1 9.1 56.1 11.5 56.1 11.5 C 57.2 9.8 59 9 61.1 9 C 64.1 9 65.7 10.8 65.7 13.5 C 65.7 13.5 65.7 21.8 65.7 21.8 C 66.3 21.9 66.9 22 67.2 22.2 C 67.2 22.2 67.2 23.9 67.2 23.9 L 59.1 23.9 C 59.1 23.9 59.1 22.2 59.1 22.2 C 59.4 22 60 21.9 60.6 21.8 C 60.6 21.8 60.6 14.5 60.6 14.5 C 60.6 13.3 59.9 12.6 58.7 12.6 C 57.8 12.6 56.9 12.9 56.1 13.6 C 56.1 13.6 56.1 21.8 56.1 21.8 C 56.8 21.9 57.4 22 57.7 22.2 C 57.69 22.2 57.7 23.9 57.7 23.9 L 49.6 23.9 C 49.6 23.9 49.56 22.2 49.6 22.2 C 49.9 22 50.4 21.9 51.1 21.8 Z M 75.5 8.9 C 76.7 8.9 77.8 9.4 78.4 10.1 C 78.42 10.11 78.4 5.7 78.4 5.7 L 76.6 5.3 C 76.6 5.3 76.56 3.57 76.6 3.6 C 78.3 3.1 80.9 2.9 83.5 2.9 C 83.46 2.88 83.5 21.4 83.5 21.4 L 85 21.8 C 85 21.8 84.96 23.43 85 23.4 C 83.3 23.9 81.1 24.1 78.5 24.1 C 78.5 24.1 78.5 21.8 78.5 21.8 C 77.7 23.3 76.2 24.2 74.4 24.2 C 70.9 24.2 68.6 21.5 68.6 17 C 68.6 12 71.4 8.9 75.5 8.9 Z M 78.4 20.2 C 78.4 20.2 78.4 12 78.4 12 C 78.1 11.9 77.7 11.8 77.3 11.8 C 75 11.8 73.8 13.9 73.8 16.5 C 73.8 19.8 75 21 76.6 21 C 77.3 21 77.9 20.7 78.4 20.2 Z M 86.7 22.2 C 86.7 21.2 86.8 20.2 87.1 19.2 C 87.06 19.2 89.7 19.2 89.7 19.2 C 89.7 19.2 90.18 21.87 90.2 21.9 C 90.6 22 91.1 22 91.6 22 C 92.9 22 93.8 21.4 93.8 20.3 C 93.8 19.3 93 18.9 91.6 18.4 C 91.6 18.4 90 18 90 18 C 88 17.4 86.6 16.1 86.6 13.6 C 86.6 10.3 89.7 9 93.2 9 C 94.8 9 96.7 9.3 97.8 9.8 C 97.9 10.2 97.9 10.7 97.9 11.1 C 97.9 12 97.8 13.1 97.6 14 C 97.56 14.04 94.9 14 94.9 14 C 94.9 14 94.44 11.4 94.4 11.4 C 94.1 11.3 93.7 11.2 93.2 11.2 C 92.1 11.2 91 11.7 91 12.8 C 91 13.9 91.9 14.3 93.1 14.6 C 93.1 14.6 94.7 15.1 94.7 15.1 C 97 15.8 98.5 16.9 98.5 19.3 C 98.5 22.5 96.1 24.2 91.6 24.2 C 90 24.2 87.9 23.9 86.8 23.5 C 86.7 23.1 86.7 22.6 86.7 22.2 Z " stroke="none" fill="#404040"/>  </g></svg>
